X: 435
T: Boyun İnce
C: Ârif Sâmi Toker
O: Turkey
F: http://compmusic.upf.edu/node/140
N: karcigar--sarki--duyek--boyun_ince--arif_sami_toker
N: makam= karcigar
N: form= sarki
N: usul= duyek = 8/4
M: 8/4
L: 1/16
K: C _2/4B _3/4e ^3/4f 
Q: 1/4=114
%%MIDI tuningsystem comma53
z2 ga ^f_7/8e d2 c_1/4B cd cB A2  | \
w:   | 
z2 gg c'c'2_1/4b ba bc' (3c'ba a2  | 
w:   | 
z2 ga _ba g^f gf ga (3f_7/8ed d2  | \
w:   | 
z2 A_1/4B c2 d2 =ed2e cB BA  | 
w:   | 
A6 dc c_1/4B BA A4  | d3_7/8e c_1/4B BA A4 z4  | \
w:   |   | 
g^f ga f_7/8e ed d4 z4  | 
w:   | 
_7/8e3d dc c_1/4B cB cd B2 A2  | =ed2c c_1/4B BA A4 z4  | 
w:   |   | 
d3_7/8e c_1/4B BA A4 z4  | g^f ga f_7/8e ed d4 z4  | \
w:   |   | 
_7/8e3d dc c_1/4B cB cd B2 A2  | 
w:   | 
=ed2c c_1/4B BA A4 z4  | z2 ga ^f_7/8e d2 c_1/4B cd cB A2  | 
w:   |   | 
z2 gg c'c'2_1/4b ba bc' (3c'ba a2  | \
w:   | 
z2 ga _ba g^f gf ga (3f_7/8ed d2  | 
w:   | 
z2 A_1/4B c2 d2 =ed2e cB BA  | A6 dc c_1/4B BA A4  | \
w:   |   | 
d3_7/8e c_1/4B BA A4 z4  | 
w:   | 
g^f ga f_7/8e ed d4 z4  | _7/8e3d dc c_1/4B cB cd B2 A2  | 
w:   |   | 
=ed2c c_1/4B BA A4 z4  | d3_7/8e c_1/4B BA A4 z4  | \
w:   |   | 
g^f ga f_7/8e ed d4 z4  | 
w:   | 
_7/8e3d dc c_1/4B cB cd B2 A2  | =ed2c c_1/4B BA A4 z4  | 
w:   |   | 
|


